X:187
T:The Halting March
Z:Jack Campin, http://www.campin.me.uk/
F:Jack Campin's Nine-Note Tunebook
% last edit 27-02-2013
M:2/4
L:1/8
Q:1/4=96
K:DDor
C|D2 E/F/G|A A2 G|A>G AB|AF D2|C2  D/E/F|G G2 A|GE  CE|G2 FE      |
  D2 E/F/G|A A2 G|A>G AB|AF D2|d c2    A|G F2 E|D>E DC|D3        :|
A|d d2   c|A G2 A|c>d cA|GE C2|d d2    c|A G2 A|c>d cA|c2 d/c/A/c/|
  d d2   c|A G2 A|c>d cA|GE C2|D>E FG   |A>G FE|D>E FG|A2 A2      |
  d d2   c|A G2 A|c>d cA|GE C2|D>E FG   |A>G FE|D>E DC|D3        |]

